build/system/VideoOffSolid.svg

<svg xmlns="http://www.w3.org/2000/svg" fill="none" viewBox="0 0 24 24" focusable="false"><path d="M0 0H24V24H0z"/><path fill="#74767B" fill-rule="evenodd" d="M7.29199 6L4.59814 2.5144C4.37549 2.22632 3.97412 2.17505 3.68604 2.39746C3.39844 2.62012 3.34668 3.02124 3.56934 3.30933L18.2461 22.2986C18.4688 22.5867 18.8701 22.6379 19.1582 22.4153C19.4458 22.1929 19.4976 21.7915 19.2749 21.5037L15.061 16.0518C15.1836 15.7244 15.2505 15.3701 15.2505 15L15.2505 9C15.2505 7.34326 13.9072 6 12.2505 6L7.29199 6ZM4.21289 6.24414L13.1846 17.8518C12.8906 17.948 12.5767 18 12.2505 18L5.40039 18C3.74365 18 2.40039 16.6567 2.40039 15L2.40039 9C2.40039 7.76514 3.14697 6.70435 4.21289 6.24414ZM17.3423 9.25098L20.042 8.10474C20.8994 7.74072 21.8501 8.36987 21.8501 9.30127L21.8501 14.373C21.8501 15.3044 20.8994 15.9336 20.042 15.5696L17.3423 14.4233C16.8618 14.2195 16.5503 13.7483 16.5503 13.2268L16.5503 10.4475C16.5503 9.92603 16.8618 9.45483 17.3423 9.25098Z"/></svg>

<svg xmlns="http://www.w3.org/2000/svg" fill="none" viewBox="0 0 24 24" focusable="false"><path fill="#74767B" fill-rule="evenodd" d="m7.29 6-2.7-3.49a.64.64 0 0 0-.91-.12c-.29.23-.34.63-.12.91l14.68 18.99c.22.29.63.34.91.12.29-.22.34-.62.12-.91l-4.21-5.45c.12-.33.19-.68.19-1.05V9c0-1.66-1.35-3-3-3zm-3.08.24 8.97 11.61c-.29.09-.61.15-.93.15H5.4c-1.66 0-3-1.35-3-3V9c0-1.24.74-2.3 1.81-2.76m13.13 3.01 2.7-1.15c.85-.36 1.81.26 1.81 1.2v5.07c0 .93-.96 1.56-1.81 1.19l-2.7-1.14c-.48-.21-.79-.68-.79-1.2v-2.78c0-.52.31-.99.79-1.19"/></svg>
